X: 5
T: Initiation song
N: Derived from ojibwa05.krn
C: Chippewa Songs ~ 1910
O: Red Wing, Minnesota, U.S.A
N: Chippewa Music by Frances Densmore, 1910
Z: transcribed to **kern format by Paul von Hippel and Daniel T. Shanahan
L: 1/8
M: 4/4
Q: 1/4=108
K: Eb clef=bass
%%linebreak <none>
C2C C [I:setbarnb 1]| 
C4G, G,G,2 | 
C4C2C B, | 
G,4E, E,E,2 | 
G,4G,2F, F, | 
E,4C, C,C,2 | 
F,4E,2E, E, | 
E,4C, C,C,2 | 
C,4C,2C, C, | 
C,4C, C,C,2 | 
[M:2/4]C,7/C,/ | 
[M:3/4]C,> C,C,2G,2 | 
G,2E, E,E,2 | 
[M:4/4]G,4F,2E, E, | 
E,4C, C,C,2 | 
F,4F,2E, E, | 
E,4C, C,C,2 | 
C,4C,2C, C, | 
C,4C, C,C,2 | 
C,4 |]  



